X: 181
Q: "Slow"
M: C
L: 1/16
K: G
.G2.G2 d3B e3ed2B2 | .G2.G2 d3B (e3c) B4 |\
.G2.G2 d3B d3ed2B2 | e3f (ag)(fe) d2B2A2 :|
d2 |\
(g3a)(g2e2) (d3e)(d2B2) | (g3a)(g2e2) (d2e2)(B2d2) |\
g3ag2e2 d3e (ed)(cB) | e3fg3e .d2.B2A4 |
g3a (ag).f.e d3e (ed).c.B | g3a (ag).f.e .d2.b2.B2.d2 |\
g3be3g d3eg3a | (ba).g.f (ag).f.e (ed).c.B A2 |]


